ociotools/blender/modified_blender_config.ocio
ocio_profile_version: 2

environment:
  {}
search_path:
  - luts
  - filmic
strictparsing: true
luma: [0.2126, 0.7152, 0.0722]
description: RRT version ut33

roles:
  aces_interchange: ACES2065-1
  cie_xyz_d65_interchange: Linear CIE-XYZ D65
  color_picking: sRGB
  color_timing: AgX Log
  compositing_log: AgX Log
  data: Non-Color
  default: Linear Rec.709
  default_byte: sRGB
  default_float: Linear Rec.709
  default_sequencer: sRGB
  matte_paint: Linear Rec.709
  reference: Linear CIE-XYZ E
  rendering: Linear Rec.709
  scene_linear: Linear Rec.709
  texture_paint: Linear Rec.709

file_rules:
  - !<Rule> {name: Default, colorspace: default}

displays:
  sRGB:
    - !<View> {name: Standard, colorspace: sRGB}
    - !<View> {name: AgX, colorspace: AgX Base sRGB}
    - !<View> {name: Filmic, colorspace: Filmic sRGB}
    - !<View> {name: Filmic Log, colorspace: Filmic Log}
    - !<View> {name: False Color, colorspace: AgX False Color Rec.709}
    - !<View> {name: Raw, colorspace: Non-Color}
  Display P3:
    - !<View> {name: Standard, colorspace: Display P3}
    - !<View> {name: AgX, colorspace: AgX Base Display P3}
    - !<View> {name: False Color, colorspace: AgX False Color P3}
    - !<View> {name: Raw, colorspace: Non-Color}
  Rec.1886:
    - !<View> {name: Standard, colorspace: Rec.1886}
    - !<View> {name: AgX, colorspace: AgX Base Rec.1886}
    - !<View> {name: False Color, colorspace: AgX False Color Rec.709}
    - !<View> {name: Raw, colorspace: Non-Color}
  Rec.2020:
    - !<View> {name: Standard, colorspace: Rec.2020}
    - !<View> {name: AgX, colorspace: AgX Base Rec.2020}
    - !<View> {name: False Color, colorspace: AgX False Color Rec.2020}
    - !<View> {name: Raw, colorspace: Non-Color}
  Apple Display P3 - Display:
    - !<View> {name: Raw, colorspace: Raw}

active_displays: [sRGB, Display P3, Rec.1886, Rec.2020]
active_views: [Standard, AgX, Filmic, Filmic Log, False Color, Raw]
inactive_colorspaces: [Luminance Compensation Rec.2020, Luminance Compensation sRGB, Luminance Compensation P3, AgX False Color Rec.709, AgX False Color P3, AgX False Color Rec.1886, AgX False Color Rec.2020]

looks:
  - !<Look>
    name: Very High Contrast
    process_space: Filmic Log
    transform: !<GroupTransform>
      children:
        - !<FileTransform> {src: filmic_to_1.20_1-00.spi1d, interpolation: linear}
        - !<FileTransform> {src: filmic_to_0-70_1-03.spi1d, interpolation: linear, direction: inverse}

  - !<Look>
    name: High Contrast
    process_space: Filmic Log
    transform: !<GroupTransform>
      children:
        - !<FileTransform> {src: filmic_to_0.99_1-0075.spi1d, interpolation: linear}
        - !<FileTransform> {src: filmic_to_0-70_1-03.spi1d, interpolation: linear, direction: inverse}

  - !<Look>
    name: Medium High Contrast
    process_space: Filmic Log
    transform: !<GroupTransform>
      children:
        - !<FileTransform> {src: filmic_to_0-85_1-011.spi1d, interpolation: linear}
        - !<FileTransform> {src: filmic_to_0-70_1-03.spi1d, interpolation: linear, direction: inverse}

  - !<Look>
    name: Medium Contrast
    process_space: Filmic Log
    transform: !<GroupTransform>
      children:
        []

  - !<Look>
    name: Medium Low Contrast
    process_space: Filmic Log
    transform: !<GroupTransform>
      children:
        - !<FileTransform> {src: filmic_to_0-60_1-04.spi1d, interpolation: linear}
        - !<FileTransform> {src: filmic_to_0-70_1-03.spi1d, interpolation: linear, direction: inverse}

  - !<Look>
    name: Low Contrast
    process_space: Filmic Log
    transform: !<GroupTransform>
      children:
        - !<FileTransform> {src: filmic_to_0-48_1-09.spi1d, interpolation: linear}
        - !<FileTransform> {src: filmic_to_0-70_1-03.spi1d, interpolation: linear, direction: inverse}

  - !<Look>
    name: Very Low Contrast
    process_space: Filmic Log
    transform: !<GroupTransform>
      children:
        - !<FileTransform> {src: filmic_to_0-35_1-30.spi1d, interpolation: linear}
        - !<FileTransform> {src: filmic_to_0-70_1-03.spi1d, interpolation: linear, direction: inverse}

  - !<Look>
    name: AgX - Punchy
    process_space: AgX Log
    description: A darkening punchy look
    transform: !<GroupTransform>
      children:
        - !<GradingToneTransform>
          style: log
          shadows: {rgb: [0.2, 0.2, 0.2], master: 0.35, start: 0.4, pivot: 0.1}
        - !<CDLTransform> {power: [1.0912, 1.0912, 1.0912]}

  - !<Look>
    name: AgX - Greyscale
    process_space: AgX Log
    description: A Black and White Look
    transform: !<GroupTransform>
      children:
        - !<AllocationTransform> {allocation: lg2, vars: [-12.47393, 12.52607], direction: inverse}
        - !<MatrixTransform> {matrix: [0.265818037025045, 0.59846986045365, 0.135712102521305, 0, 0.265818037025045, 0.59846986045365, 0.135712102521305, 0, 0.265818037025045, 0.59846986045365, 0.135712102521305, 0, 0, 0, 0, 1]}
        - !<AllocationTransform> {allocation: lg2, vars: [-12.47393, 12.52607]}

  - !<Look>
    name: AgX - Very High Contrast
    process_space: AgX Log
    description: A Very High Contrast Look
    transform: !<GroupTransform>
      children:
        - !<GradingPrimaryTransform>
          style: log
          contrast: {rgb: [1.57, 1.57, 1.57], master: 1}
          saturation: 0.9
          pivot: {contrast: -0.2}

  - !<Look>
    name: AgX - High Contrast
    process_space: AgX Log
    description: A High Contrast Look
    transform: !<GroupTransform>
      children:
        - !<GradingPrimaryTransform>
          style: log
          contrast: {rgb: [1.4, 1.4, 1.4], master: 1}
          saturation: 0.95
          pivot: {contrast: -0.2}

  - !<Look>
    name: AgX - Medium High Contrast
    process_space: AgX Log
    description: A Medium High Contrast Look
    transform: !<GroupTransform>
      children:
        - !<GradingPrimaryTransform>
          style: log
          contrast: {rgb: [1.2, 1.2, 1.2], master: 1}
          pivot: {contrast: -0.2}

  - !<Look>
    name: AgX - Base Contrast
    process_space: AgX Log
    description: A Base Contrast Look
    transform: !<GroupTransform>
      children:
        - !<GradingPrimaryTransform> {style: log}

  - !<Look>
    name: AgX - Medium Low Contrast
    process_space: AgX Log
    description: A Medium Low Contrast Look
    transform: !<GroupTransform>
      children:
        - !<GradingPrimaryTransform>
          style: log
          contrast: {rgb: [0.9, 0.9, 0.9], master: 1}
          saturation: 1.05
          pivot: {contrast: -0.2}

  - !<Look>
    name: AgX - Low Contrast
    process_space: AgX Log
    description: A Low Contrast Look
    transform: !<GroupTransform>
      children:
        - !<GradingPrimaryTransform>
          style: log
          contrast: {rgb: [0.8, 0.8, 0.8], master: 1}
          saturation: 1.1
          pivot: {contrast: -0.2}

  - !<Look>
    name: AgX - Very Low Contrast
    process_space: AgX Log
    description: A Very Low Contrast Look
    transform: !<GroupTransform>
      children:
        - !<GradingPrimaryTransform>
          style: log
          contrast: {rgb: [0.7, 0.7, 0.7], master: 1}
          saturation: 1.15
          pivot: {contrast: -0.2}

  - !<Look>
    name: False Color - Punchy
    process_space: AgX Log
    description: A darkening punchy look
    transform: !<GroupTransform>
      children:
        - !<GradingToneTransform>
          style: log
          shadows: {rgb: [0.2, 0.2, 0.2], master: 0.35, start: 0.4, pivot: 0.1}
        - !<CDLTransform> {power: [1.0912, 1.0912, 1.0912]}

  - !<Look>
    name: False Color - Greyscale
    process_space: AgX Log
    description: A Black and White Look
    transform: !<GroupTransform>
      children:
        - !<AllocationTransform> {allocation: lg2, vars: [-12.47393, 12.52607], direction: inverse}
        - !<MatrixTransform> {matrix: [0.265818037025045, 0.59846986045365, 0.135712102521305, 0, 0.265818037025045, 0.59846986045365, 0.135712102521305, 0, 0.265818037025045, 0.59846986045365, 0.135712102521305, 0, 0, 0, 0, 1]}
        - !<AllocationTransform> {allocation: lg2, vars: [-12.47393, 12.52607]}

  - !<Look>
    name: False Color - Very High Contrast
    process_space: AgX Log
    description: A Very High Contrast Look
    transform: !<GroupTransform>
      children:
        - !<GradingPrimaryTransform>
          style: log
          contrast: {rgb: [1.57, 1.57, 1.57], master: 1}
          saturation: 0.9
          pivot: {contrast: -0.2}

  - !<Look>
    name: False Color - High Contrast
    process_space: AgX Log
    description: A High Contrast Look
    transform: !<GroupTransform>
      children:
        - !<GradingPrimaryTransform>
          style: log
          contrast: {rgb: [1.4, 1.4, 1.4], master: 1}
          saturation: 0.95
          pivot: {contrast: -0.2}

  - !<Look>
    name: False Color - Medium High Contrast
    process_space: AgX Log
    description: A Medium High Contrast Look
    transform: !<GroupTransform>
      children:
        - !<GradingPrimaryTransform>
          style: log
          contrast: {rgb: [1.2, 1.2, 1.2], master: 1}
          pivot: {contrast: -0.2}

  - !<Look>
    name: False Color - Base Contrast
    process_space: AgX Log
    description: A Base Contrast Look
    transform: !<GroupTransform>
      children:
        - !<GradingPrimaryTransform> {style: log}

  - !<Look>
    name: False Color - Medium Low Contrast
    process_space: AgX Log
    description: A Medium Low Contrast Look
    transform: !<GroupTransform>
      children:
        - !<GradingPrimaryTransform>
          style: log
          contrast: {rgb: [0.9, 0.9, 0.9], master: 1}
          saturation: 1.05
          pivot: {contrast: -0.2}

  - !<Look>
    name: False Color - Low Contrast
    process_space: AgX Log
    description: A Low Contrast Look
    transform: !<GroupTransform>
      children:
        - !<GradingPrimaryTransform>
          style: log
          contrast: {rgb: [0.8, 0.8, 0.8], master: 1}
          saturation: 1.1
          pivot: {contrast: -0.2}

  - !<Look>
    name: False Color - Very Low Contrast
    process_space: AgX Log
    description: A Very Low Contrast Look
    transform: !<GroupTransform>
      children:
        - !<GradingPrimaryTransform>
          style: log
          contrast: {rgb: [0.7, 0.7, 0.7], master: 1}
          saturation: 1.15
          pivot: {contrast: -0.2}


view_transforms:
  - !<ViewTransform>
    name: ACES 1.0 - SDR Video
    description: |
      Component of ACES Output Transforms for SDR D65 video

      ACEStransformID: urn:ampas:aces:transformId:v1.5:ODT.Academy.RGBmonitor_100nits_dim.a1.0.3
      ACEStransformID: urn:ampas:aces:transformId:v1.5:ODT.Academy.Rec709_100nits_dim.a1.0.3
      ACEStransformID: urn:ampas:aces:transformId:v1.5:ODT.Academy.Rec2020_100nits_dim.a1.0.3
    from_scene_reference: !<BuiltinTransform> {style: ACES-OUTPUT - ACES2065-1_to_CIE-XYZ-D65 - SDR-VIDEO_1.0}

  - !<ViewTransform>
    name: ACES 1.0 - SDR Video (D60 sim on D65)
    description: |
      Component of ACES Output Transforms for SDR D65 video simulating D60 white

      ACEStransformID: urn:ampas:aces:transformId:v1.5:ODT.Academy.RGBmonitor_D60sim_100nits_dim.a1.0.3
      ACEStransformID: urn:ampas:aces:transformId:v1.5:ODT.Academy.Rec709_D60sim_100nits_dim.a1.0.3
    from_scene_reference: !<BuiltinTransform> {style: ACES-OUTPUT - ACES2065-1_to_CIE-XYZ-D65 - SDR-VIDEO-D60sim-D65_1.0}

  - !<ViewTransform>
    name: ACES 1.1 - HDR Video (1000 nits & Rec.2020 lim)
    description: |
      Component of ACES Output Transforms for 1000 nit HDR D65 video

      ACEStransformID: urn:ampas:aces:transformId:v1.5:RRTODT.Academy.Rec2020_1000nits_15nits_HLG.a1.1.0
      ACEStransformID: urn:ampas:aces:transformId:v1.5:RRTODT.Academy.Rec2020_1000nits_15nits_ST2084.a1.1.0
    from_scene_reference: !<BuiltinTransform> {style: ACES-OUTPUT - ACES2065-1_to_CIE-XYZ-D65 - HDR-VIDEO-1000nit-15nit-REC2020lim_1.1}

  - !<ViewTransform>
    name: ACES 1.1 - HDR Video (1000 nits & P3 lim)
    description: |
      Component of ACES Output Transforms for 1000 nit HDR D65 video

      ACEStransformID: urn:ampas:aces:transformId:v1.5:RRTODT.Academy.P3D65_1000nits_15nits_ST2084.a1.1.0
    from_scene_reference: !<BuiltinTransform> {style: ACES-OUTPUT - ACES2065-1_to_CIE-XYZ-D65 - HDR-VIDEO-1000nit-15nit-P3lim_1.1}

  - !<ViewTransform>
    name: ACES 1.0 - SDR Cinema
    description: |
      Component of ACES Output Transforms for SDR cinema

      ACEStransformID: urn:ampas:aces:transformId:v1.5:ODT.Academy.P3D60_48nits.a1.0.3
      ACEStransformID: urn:ampas:aces:transformId:v1.5:ODT.Academy.P3D65_48nits.a1.1.0
    from_scene_reference: !<BuiltinTransform> {style: ACES-OUTPUT - ACES2065-1_to_CIE-XYZ-D65 - SDR-CINEMA_1.0}

  - !<ViewTransform>
    name: ACES 1.1 - HDR Cinema (108 nits & P3 lim)
    description: |
      Component of ACES Output Transforms for 108 nit HDR D65 cinema

      ACEStransformID: urn:ampas:aces:transformId:v1.5:RRTODT.Academy.P3D65_108nits_7point2nits_ST2084.a1.1.0
    from_scene_reference: !<BuiltinTransform> {style: ACES-OUTPUT - ACES2065-1_to_CIE-XYZ-D65 - HDR-CINEMA-108nit-7.2nit-P3lim_1.1}

  - !<ViewTransform>
    name: Un-tone-mapped
    from_scene_reference: !<BuiltinTransform> {style: UTILITY - ACES-AP0_to_CIE-XYZ-D65_BFD}

display_colorspaces:
  - !<ColorSpace>
    name: Apple Display P3 - Display
    family: Display
    equalitygroup: ""
    bitdepth: 32f
    description: Convert CIE XYZ (D65 white) to P3-D65 with sRGB piecewise EOTF
    isdata: false
    categories: [file-io]
    encoding: sdr-video
    allocation: uniform
    from_display_reference: !<GroupTransform>
      children:
        - !<MatrixTransform> {matrix: [2.49349691194143, -0.931383617919124, -0.402710784450717, 0, -0.829488969561575, 1.76266406031835, 0.023624685841944, 0, 0.035845830243784, -0.076172389268042, 0.956884524007687, 0, 0, 0, 0, 1]}
        - !<ExponentWithLinearTransform> {gamma: 2.4, offset: 0.055, direction: inverse}

colorspaces:
  - !<ColorSpace>
    name: Linear CIE-XYZ E
    aliases: ["FilmLight: Linear - XYZ", Linear CIE-XYZ I-E]
    family: Chromaticity
    equalitygroup: ""
    bitdepth: 32f
    description: 1931 CIE XYZ standard with assumed illuminant E white point
    isdata: false
    allocation: uniform

  - !<ColorSpace>
    name: Linear CIE-XYZ D65
    aliases: [cie_xyz_d65, CIE-XYZ-D65, XYZ, Linear CIE-XYZ I-D65]
    family: Chromaticity
    equalitygroup: ""
    bitdepth: 32f
    description: 1931 CIE XYZ with adapted illuminant D65 white point
    isdata: false
    allocation: uniform
    from_scene_reference: !<FileTransform> {src: xyz_E_to_D65.spimtx, interpolation: linear}

  - !<ColorSpace>
    name: Linear Rec.709
    aliases: [Linear, Linear BT.709, Linear BT.709 I-D65, Linear Tristimulus, linrec709, Utility - Linear - sRGB, Utility - Linear - Rec.709, lin_srgb, Linear Rec.709 (sRGB), lin_rec709_srgb, lin_rec709, "CGI: Linear - Rec.709"]
    family: Linear
    equalitygroup: ""
    bitdepth: 32f
    description: Linear BT.709 with illuminant D65 white point
    isdata: false
    allocation: uniform
    from_scene_reference: !<GroupTransform>
      children:
        - !<ColorSpaceTransform> {src: Linear CIE-XYZ E, dst: Linear CIE-XYZ D65}
        - !<MatrixTransform> {matrix: [3.24043735649201, -1.53713054090005, -0.498528824075693, 0, -0.96926749826876, 1.8760136862977, 0.0415560804587997, 0, 0.0556434463874256, -0.204025970087227, 1.05722548136109, 0, 0, 0, 0, 1]}

  - !<ColorSpace>
    name: Linear DCI-P3 D65
    aliases: [Linear DCI-P3 I-D65, Linear P3-D65, lin_p3d65, Utility - Linear - P3-D65, Apple DCI-P3 D65]
    family: Linear
    equalitygroup: ""
    bitdepth: 32f
    description: Linear DCI-P3 with illuminant D65 white point
    isdata: false
    allocation: uniform
    from_scene_reference: !<GroupTransform>
      children:
        - !<ColorSpaceTransform> {src: Linear CIE-XYZ E, dst: Linear CIE-XYZ D65}
        - !<MatrixTransform> {matrix: [2.49350912393461, -0.931388179404779, -0.402712756741652, 0, -0.829473213929554, 1.7626305796003, 0.0236242371055886, 0, 0.0358512644339181, -0.0761839369220759, 0.957029586694311, 0, 0, 0, 0, 1]}

  - !<ColorSpace>
    name: Linear Rec.2020
    aliases: [Linear BT.2020 I-D65, Linear BT.2020, lin_rec2020, Utility - Linear - Rec.2020]
    family: Linear
    equalitygroup: ""
    bitdepth: 32f
    description: Linear BT.2020 with illuminant D65 white point
    isdata: false
    allocation: uniform
    from_scene_reference: !<GroupTransform>
      children:
        - !<ColorSpaceTransform> {src: Linear CIE-XYZ E, dst: Linear CIE-XYZ D65}
        - !<MatrixTransform> {matrix: [1.71666342779588, -0.35567331973014, -0.253368087890248, 0, -0.666673836198887, 1.6164557398247, 0.0157682970961337, 0, 0.0176424817849772, -0.0427769763827532, 0.942243281018431, 0, 0, 0, 0, 1]}

  - !<ColorSpace>
    name: ACES2065-1
    aliases: [Linear ACES, aces2065_1, ACES - ACES2065-1, lin_ap0, "ACES: Linear - AP0"]
    family: Linear
    equalitygroup: ""
    bitdepth: 32f
    description: Linear AP0 with ACES white point
    isdata: false
    allocation: uniform
    from_scene_reference: !<GroupTransform>
      children:
        - !<ColorSpaceTransform> {src: Linear CIE-XYZ E, dst: Linear CIE-XYZ D65}
        - !<BuiltinTransform> {style: UTILITY - ACES-AP0_to_CIE-XYZ-D65_BFD, direction: inverse}

  - !<ColorSpace>
    name: ACEScg
    aliases: [Linear ACEScg, lin_ap1, ACES - ACEScg, "ACEScg: Linear - AP1"]
    family: Linear
    equalitygroup: ""
    bitdepth: 32f
    description: Linear AP1 with ACES white point
    isdata: false
    allocation: uniform
    from_scene_reference: !<GroupTransform>
      children:
        - !<ColorSpaceTransform> {src: Linear CIE-XYZ E, dst: Linear CIE-XYZ D65}
        - !<BuiltinTransform> {style: UTILITY - ACES-AP1_to_CIE-XYZ-D65_BFD, direction: inverse}

  - !<ColorSpace>
    name: Linear FilmLight E-Gamut
    aliases: [Linear E-Gamut I-D65, "FilmLight: Linear - E-Gamut"]
    family: Linear
    equalitygroup: ""
    bitdepth: 32f
    description: Linear E-Gamut with illuminant D65 white point
    isdata: false
    allocation: uniform
    from_scene_reference: !<GroupTransform>
      children:
        - !<ColorSpaceTransform> {src: Linear CIE-XYZ I-E, dst: Linear CIE-XYZ I-D65}
        - !<MatrixTransform> {matrix: [0.7053968501, 0.1640413283, 0.08101774865, 0, 0.2801307241, 0.8202066415, -0.1003373656, 0, -0.1037815116, -0.07290725703, 1.265746519, 0, 0, 0, 0, 1], direction: inverse}

  - !<ColorSpace>
    name: sRGB
    aliases: [sRGB 2.2, sRGB I-D65, srgb_display, sRGB - Display, g22_rec709, Utility - Gamma 2.2 - Rec.709 - Texture, Utility - sRGB - Texture, sRGB - Texture, srgb_tx, srgb_texture, Input - Generic - sRGB - Texture, "sRGB Display: 2.2 Gamma - Rec.709"]
    family: Display
    equalitygroup: ""
    bitdepth: 32f
    description: sRGB IEC 61966-2-1 compound (piece-wise) encoding
    isdata: false
    allocation: uniform
    from_scene_reference: !<GroupTransform>
      children:
        - !<ColorSpaceTransform> {src: Linear CIE-XYZ E, dst: Linear Rec.709}
        - !<ExponentWithLinearTransform> {gamma: 2.4, offset: 0.055, direction: inverse}

  - !<ColorSpace>
    name: Display P3
    aliases: [Display P3 2.2, Display P3 I-D65, P3-D65 - Display, p3_d65_display, p3d65_display, AppleP3 sRGB OETF]
    family: Display
    equalitygroup: ""
    bitdepth: 32f
    description: Apple's Display P3 with sRGB compound (piece-wise) encoding transfer function, common on Mac devices
    isdata: false
    allocation: uniform
    from_scene_reference: !<GroupTransform>
      children:
        - !<ColorSpaceTransform> {src: Linear CIE-XYZ E, dst: Linear DCI-P3 D65}
        - !<ExponentWithLinearTransform> {gamma: 2.4, offset: 0.055, direction: inverse}

  - !<ColorSpace>
    name: Rec.1886
    aliases: [BT.1886, BT.1886 2.4, BT.1886 EOTF, BT.1886 I-D65, Rec.1886 / Rec.709 Video - Display, rec1886_rec709_video_display, Rec.1886 Rec.709 - Display, rec1886_rec709_display, "Rec1886: 2.4 Gamma - Rec.709"]
    family: Display
    equalitygroup: ""
    bitdepth: 32f
    description: BT.1886 2.4 Exponent EOTF Display, commonly used for TVs
    isdata: false
    allocation: uniform
    from_scene_reference: !<GroupTransform>
      children:
        - !<ColorSpaceTransform> {src: Linear CIE-XYZ E, dst: Linear Rec.709}
        - !<ExponentTransform> {value: 2.4, direction: inverse}

  - !<ColorSpace>
    name: Rec.2020
    aliases: [BT.2020, BT.2020 2.4, BT.2020 I-D65, Rec.1886 / Rec.2020 Video - Display, rec1886_rec2020_video_display, Rec.1886 Rec.2020 - Display, rec1886_rec2020_display, "Rec1886: 2.4 Gamma - Rec.2020"]
    family: Display
    equalitygroup: ""
    bitdepth: 32f
    description: BT.2020 2.4 Exponent EOTF Display
    isdata: false
    allocation: uniform
    from_scene_reference: !<GroupTransform>
      children:
        - !<ColorSpaceTransform> {src: Linear CIE-XYZ E, dst: Linear Rec.2020}
        - !<ExponentTransform> {value: 2.4, direction: inverse}

  - !<ColorSpace>
    name: Non-Color
    aliases: [Generic Data, Non-Colour Data, Raw, Utility - Raw]
    family: Data
    equalitygroup: ""
    bitdepth: 32f
    description: Generic data that is not color, will not apply any color transform (e.g. normal maps)
    isdata: true
    allocation: uniform

  - !<ColorSpace>
    name: Filmic Log
    family: Log Encodings
    equalitygroup: ""
    bitdepth: 32f
    description: Log based filmic shaper with 16.5 stops of latitude, and 25 stops of dynamic range
    isdata: false
    allocation: uniform
    to_scene_reference: !<GroupTransform>
      children:
        - !<AllocationTransform> {allocation: lg2, vars: [-12.47393, 4.026069], direction: inverse}
        - !<ColorSpaceTransform> {src: Linear CIE-XYZ E, dst: Linear Rec.709, direction: inverse}
    from_scene_reference: !<GroupTransform>
      children:
        - !<ColorSpaceTransform> {src: Linear CIE-XYZ E, dst: Linear Rec.709}
        - !<AllocationTransform> {allocation: lg2, vars: [-12.47393, 12.52607]}
        - !<FileTransform> {src: filmic_desat_33.cube, interpolation: tetrahedral}
        - !<AllocationTransform> {allocation: uniform, vars: [0, 0.66]}

  - !<ColorSpace>
    name: Filmic sRGB
    family: Filmic
    equalitygroup: ""
    bitdepth: 32f
    description: sRGB display space with Filmic view transform
    isdata: false
    allocation: uniform
    from_scene_reference: !<GroupTransform>
      children:
        - !<ColorSpaceTransform> {src: Linear CIE-XYZ E, dst: Filmic Log}
        - !<FileTransform> {src: filmic_to_0-70_1-03.spi1d, interpolation: linear}

  - !<ColorSpace>
    name: Luminance Compensation Rec.2020
    aliases: [Luminance Compensation BT.2020]
    family: Utilities
    equalitygroup: ""
    bitdepth: 32f
    description: Offset the negative values in BT.2020 and compensate for luminance, ensuring there is no negative values in Rec.2020
    isdata: false
    allocation: uniform
    from_scene_reference: !<GroupTransform>
      children:
        - !<ColorSpaceTransform> {src: Linear CIE-XYZ E, dst: Linear FilmLight E-Gamut}
        - !<AllocationTransform> {allocation: lg2, vars: [-12.47393, 12.52607]}
        - !<FileTransform> {src: luminance_compensation_bt2020.cube, interpolation: tetrahedral}
        - !<AllocationTransform> {allocation: lg2, vars: [-12.47393, 12.52607], direction: inverse}
        - !<ColorSpaceTransform> {src: Linear FilmLight E-Gamut, dst: Linear Rec.2020}

  - !<ColorSpace>
    name: Luminance Compensation sRGB
    family: Utilities
    equalitygroup: ""
    bitdepth: 32f
    description: Offset the negative values in BT.709 and compensate for luminance, ensuring there is no negative values in Rec.709
    isdata: false
    allocation: uniform
    from_scene_reference: !<GroupTransform>
      children:
        - !<ColorSpaceTransform> {src: Linear CIE-XYZ E, dst: Linear FilmLight E-Gamut}
